!!!SOCIAL_FUNCTION:	songs connected with legends
!!!PDT:	1929
!!!OTL: No_18_Song_of_Brown_Buzzard_After_Removing_His_Scalp.krn
!!!REG: Southwest
!!!LANG: Non-Tone
!!!LING_GROUP: Uto-Aztecan
**kern
*staff1
*clefF4
*k[f#c#g#]
*M2/4
16c#\
=1
2c#\
=2||
*M3/4
16B\LK
8B\
16A\Jk
8.A\L
16F#\Jk
8.A\L
16B\Jk
=3||
*M2/4
2B\
=4||
*M3/4
16A\LK
8A\
16F#\Jk
8.F#\L
16E\Jk
4F#\
=5||
*M2/4
8F#\L
16F#\L
16F#\JJ
4F#\
=6
16F#\LK
8F#\
16E\Jk
8.E/L
16C#/Jk
=7||
*M3/4
8.F#\L
16F#\Jk
4F#\
4r
=8||
*M2/4
4E\
4C#;/
=9
16F#\LK
8F#\
16F#\Jk
8F#\L
8F#\J
=10
2F#\
=11
4r
8.F#\L
16c#\Jk
=12
2c#\
=13||
*M3/4
16B\LK
8B\
16A\Jk
8.A\L
16F#\Jk
8.A\L
16B\Jk
=14||
*M2/4
2B\
=15||
*M3/4
16A\LK
8A\
16F#\Jk
8.F#\L
16E\Jk
4F#\
=16||
*M2/4
8F#\L
16F#\L
16F#\JJ
4F#\
=17
16F#\LK
8F#\
16F#\Jk
8.E/L
16C#/Jk
=18||
*M3/4
8.F#\L
16F#\Jk
4F#\
4r
=19||
*M2/4
4E\
4C#;/
=20
16F#\LK
8F#\
16F#\Jk
8F#\L
8F#\J
=21||
*M3/4
4F#\
8.r
16A\
8.A\L
16B\Jk
=22||
*M2/4
2B\
=23||
*M3/4
16A\LK
8A\
16F#\Jk
8.F#\L
16E\Jk
4F#\
=24||
*M2/4
8F#\L
16F#\L
16F#\JJ
4F#\
=25
16F#\LK
8F#\
16F#\Jk
8.E/L
16C#/Jk
=26||
*M3/4
8.F#\L
16F#\Jk
4F#\
4r
=27||
*M2/4
4E\
4C#/
=28
16F#\LK
8F#\
16F#\Jk
8F#\L
8F#\J
=29
2F#\
==
*-
